packages/core/src/svgs/tokens/mono/HON.svg

<svg width="24" height="24" viewBox="0 0 24 24" fill="none" xmlns="http://www.w3.org/2000/svg">
<path d="M8.39169 2.76011L8.80353 3.46613L9.03299 3.87797L10.192 5.90187L10.4098 6.26663C10.4214 6.29016 10.4391 6.29605 10.4567 6.29016C11.4808 6.02197 12.5568 6.02197 13.5809 6.29016L13.5926 6.28429L15.7048 2.60127C15.7096 2.59366 15.7173 2.5882 15.7259 2.58601C15.7347 2.58383 15.744 2.58507 15.7519 2.5895L17.9876 3.88385L18.2464 4.03094C18.2641 4.0427 18.27 4.06036 18.2582 4.078L17.6581 5.13114L16.146 7.74925V7.77867L16.1519 7.8022L16.5519 8.23757C17.1017 8.90246 17.4994 9.67965 17.7169 10.5144L17.7405 10.5204H21.9647C21.9882 10.5204 22 10.5322 22 10.5556V13.4738H16.7167C16.6755 13.4752 16.6354 13.4603 16.6049 13.4326L15.74 12.6089C15.7186 12.5914 15.6912 12.583 15.6636 12.5854H14.4927C14.4859 12.5853 14.4791 12.5875 14.4738 12.5919C14.4684 12.5962 14.4647 12.6022 14.4633 12.6089C14.1104 14.168 12.4512 14.9623 10.9745 14.3093C10.6099 14.1616 10.2866 13.9274 10.0325 13.6271C9.77841 13.3269 9.6009 12.9694 9.51538 12.5854H7.17972C7.15617 12.5854 7.14441 12.5914 7.14441 12.6207C7.25615 13.5483 7.63197 14.4243 8.22715 15.1445C8.82234 15.8646 9.61188 16.3987 10.5017 16.6831C11.3917 16.9677 12.3446 16.9905 13.2472 16.749C14.1498 16.5077 14.964 16.0119 15.593 15.3212C15.6047 15.3095 15.6165 15.3095 15.6224 15.3212L18.27 19.9221C18.2709 19.9259 18.2709 19.9299 18.27 19.9338V19.9456L18.2641 19.9515L15.7637 21.4105C15.759 21.4127 15.7539 21.4138 15.7488 21.4138C15.7439 21.4138 15.7388 21.4127 15.7341 21.4105C15.7251 21.4098 15.7167 21.4055 15.7107 21.3988L13.6044 17.7334C13.5994 17.7241 13.5916 17.7168 13.582 17.7126C13.5724 17.7083 13.5617 17.7074 13.5514 17.7098C12.5305 17.9869 11.4542 17.9869 10.4332 17.7098C10.4279 17.7119 10.4231 17.715 10.419 17.7192C10.415 17.7231 10.4118 17.7281 10.4098 17.7334L8.29756 21.3988C8.2927 21.4064 8.28512 21.4118 8.27637 21.414C8.26762 21.4162 8.25835 21.415 8.2505 21.4105L5.77357 19.9808C5.74416 19.9633 5.73828 19.9397 5.75592 19.9103L7.8563 16.2508C7.86161 16.243 7.86445 16.2338 7.86445 16.2243C7.86445 16.2148 7.86161 16.2056 7.8563 16.1978C7.10127 15.4524 6.56072 14.5177 6.29131 13.4915C6.28441 13.4868 6.27607 13.4848 6.26778 13.4856H2.03173C2.02731 13.4857 2.02294 13.4848 2.01892 13.483C2.01491 13.4811 2.01136 13.4785 2.00853 13.475C2.0057 13.4716 2.00368 13.4676 2.0026 13.4634C2.00153 13.4591 2.00142 13.4546 2.00231 13.4503V10.6262C1.99642 10.5909 2.00231 10.5674 2.01408 10.5497C2.01996 10.5322 2.04349 10.5263 2.07291 10.5263H7.2915C7.31006 10.5261 7.32844 10.5298 7.3456 10.5368C7.36276 10.544 7.37837 10.5543 7.39151 10.5674L8.27403 11.3911C8.27889 11.3977 8.28505 11.4032 8.29215 11.4072C8.29923 11.4113 8.30708 11.4138 8.31521 11.4146H9.50371C9.52128 11.4146 9.53309 11.4087 9.53899 11.3911C10.192 8.76119 13.8456 8.76708 14.4633 11.3911C14.4693 11.4028 14.4811 11.4146 14.4986 11.4146H16.8344C16.8376 11.4149 16.8408 11.4145 16.8438 11.4135C16.8468 11.4125 16.8497 11.4109 16.852 11.4087C16.8553 11.4069 16.8579 11.4044 16.86 11.4013C16.862 11.3983 16.8634 11.3947 16.8638 11.3911C16.7503 10.4631 16.3732 9.58726 15.777 8.86713C15.1809 8.14701 14.3909 7.61289 13.5005 7.32806C12.6101 7.04324 11.6567 7.01965 10.7534 7.2601C9.84993 7.50055 9.03445 7.99495 8.40345 8.68472C8.39833 8.6841 8.39346 8.68213 8.38933 8.67905C8.3852 8.67594 8.38196 8.67181 8.37992 8.66706L7.23854 6.67847L6.29131 5.04288L6.1913 4.86638L5.75004 4.09565C5.74678 4.09108 5.7445 4.08588 5.74332 4.08038C5.74215 4.07488 5.74211 4.0692 5.74321 4.06369C5.74431 4.05819 5.74653 4.05296 5.74973 4.04833C5.75293 4.0437 5.75703 4.03979 5.76181 4.03681L6.21483 3.77794L8.23873 2.60127C8.26226 2.5895 8.27403 2.5895 8.29756 2.60715C8.32697 2.64834 8.36228 2.70129 8.39169 2.766V2.76011ZM13.1866 4.27804L13.669 4.36041C13.6756 4.3609 13.682 4.36325 13.6873 4.36715C13.6927 4.37105 13.6968 4.37637 13.6992 4.3825C13.7017 4.38862 13.7024 4.3953 13.7012 4.4018C13.7001 4.4083 13.6971 4.41434 13.6927 4.41925L13.1866 5.30175C13.179 5.31292 13.1683 5.32163 13.1558 5.32684C13.1431 5.33206 13.1294 5.33357 13.1161 5.33117C12.4182 5.20663 11.7044 5.19868 11.0039 5.30764C10.9097 5.34293 10.8333 5.30764 10.7745 5.20762C10.6206 4.93521 10.4637 4.66455 10.3038 4.3957C10.303 4.38873 10.304 4.38164 10.3072 4.37536C10.3104 4.36907 10.3153 4.36387 10.3215 4.36041H10.3332C11.2746 4.15449 12.2218 4.12507 13.1866 4.27804ZM5.69121 9.5966C5.87947 9.09655 6.12658 8.62 6.43252 8.16698L6.80317 7.67865C6.80988 7.66702 6.81341 7.65383 6.81341 7.6404C6.81341 7.62698 6.80988 7.6138 6.80317 7.60217L6.30308 6.71965C6.29933 6.71241 6.29316 6.70668 6.28565 6.70346C6.27815 6.70024 6.26974 6.69972 6.26191 6.702L6.24425 6.71377C5.8131 7.19531 5.43808 7.72429 5.1264 8.29053C4.89695 8.73178 4.71456 9.17303 4.57337 9.6143C4.56748 9.63188 4.57337 9.64368 4.59101 9.64368H5.62649C5.63999 9.643 5.65291 9.63805 5.66346 9.62968C5.67402 9.62117 5.68165 9.60964 5.68533 9.5966H5.69121ZM18.1169 7.14326C18.7053 7.88457 19.1465 8.70825 19.4348 9.6143C19.4407 9.63188 19.4348 9.64368 19.4113 9.64368H18.3876C18.3725 9.64368 18.3577 9.63929 18.3452 9.63092C18.3326 9.62254 18.3228 9.6106 18.3171 9.5966C18.0513 8.89105 17.6695 8.23484 17.1874 7.65512C17.1874 7.63746 17.1874 7.6257 17.1992 7.61393C17.3741 7.30908 17.5506 7.0051 17.7287 6.702C17.7318 6.70124 17.7353 6.7014 17.7383 6.70242C17.7414 6.70347 17.7442 6.70536 17.7463 6.70789L18.1169 7.14326ZM4.57337 14.3975C4.92366 15.4729 5.50158 16.4602 6.26778 17.2921H6.29131V17.2804L6.82083 16.3744L6.8267 16.3508L6.82083 16.3332C6.32661 15.7469 5.93657 15.0802 5.66768 14.3623C5.6593 14.3554 5.64903 14.3513 5.63826 14.3505H4.60277L4.59101 14.3564C4.58694 14.3576 4.5832 14.3597 4.58002 14.3625C4.57685 14.3654 4.57434 14.369 4.57267 14.3728C4.57099 14.3768 4.57018 14.3809 4.5703 14.3852C4.57041 14.3894 4.57146 14.3937 4.57337 14.3975ZM18.2464 14.5564L18.3287 14.3798C18.3324 14.3706 18.339 14.3628 18.3475 14.3575C18.3559 14.3522 18.3659 14.3498 18.3758 14.3505H19.4231L19.4348 14.3623V14.3857C19.0849 15.4708 18.5027 16.4666 17.7287 17.3039C17.7246 17.3025 17.721 17.3 17.7178 17.297C17.7148 17.294 17.7125 17.2903 17.711 17.2863L17.1933 16.3919C17.1883 16.3827 17.1862 16.3722 17.1873 16.3617C17.1883 16.3512 17.1925 16.3413 17.1992 16.3332C17.6404 15.8037 17.9876 15.2094 18.2464 14.5564ZM10.8333 18.6807L10.3038 19.6161C10.3014 19.6224 10.3013 19.6294 10.3034 19.6359C10.3056 19.6423 10.3098 19.6478 10.3156 19.6514H10.3274C11.4399 19.8965 12.5928 19.8946 13.7045 19.6455C13.706 19.6418 13.7069 19.6378 13.7069 19.6338C13.7069 19.6297 13.706 19.6257 13.7045 19.622L13.1748 18.6866C13.1691 18.6689 13.1573 18.663 13.1337 18.6689C12.3807 18.7983 11.6276 18.7983 10.8744 18.6689C10.8569 18.6689 10.8451 18.6689 10.8333 18.6866V18.6807Z" fill="white"/>
</svg>

<svg xmlns="http://www.w3.org/2000/svg" width="24" height="24" fill="none" viewBox="0 0 24 24">
    <path fill="#fff" d="m8.392 2.76.412.706.229.412 1.159 2.024.218.365c.011.023.03.029.047.023a6.17 6.17 0 0 1 3.124 0l.012-.006 2.112-3.683a.035.035 0 0 1 .047-.011l2.236 1.294.258.147q.029.02.012.047l-.6 1.053-1.512 2.618v.03l.006.023.4.436c.55.664.947 1.442 1.165 2.276l.024.006h4.224q.035 0 .035.036v2.918h-5.283a.16.16 0 0 1-.112-.041l-.865-.824a.1.1 0 0 0-.076-.024h-1.171a.03.03 0 0 0-.03.024c-.353 1.559-2.012 2.353-3.488 1.7a2.43 2.43 0 0 1-1.46-1.724H7.18c-.024 0-.036.006-.036.036a4.878 4.878 0 0 0 8.449 2.7q.02-.016.03 0l2.647 4.601v.024l-.006.005-2.5 1.46a.04.04 0 0 1-.03 0 .04.04 0 0 1-.023-.012l-2.107-3.666a.05.05 0 0 0-.053-.024 5.95 5.95 0 0 1-3.118 0 .04.04 0 0 0-.023.024L8.298 21.4a.035.035 0 0 1-.047.011l-2.477-1.43q-.045-.025-.018-.07l2.1-3.66a.05.05 0 0 0 0-.052 5.9 5.9 0 0 1-1.565-2.706.04.04 0 0 0-.023-.006H2.032a.03.03 0 0 1-.023-.011.03.03 0 0 1-.007-.025v-2.824q-.007-.051.012-.076c.006-.018.03-.024.059-.024h5.219a.14.14 0 0 1 .1.041l.882.824a.06.06 0 0 0 .041.024h1.189q.026.002.035-.024c.653-2.63 4.307-2.624 4.924 0a.04.04 0 0 0 .036.024h2.335a.02.02 0 0 0 .018-.006l.008-.008.004-.01a4.888 4.888 0 0 0-8.46-2.706.03.03 0 0 1-.024-.018l-1.141-1.99-.949-1.635-.1-.177-.441-.77a.04.04 0 0 1 .012-.06l.453-.258L8.239 2.6c.023-.011.035-.011.059.006a1 1 0 0 1 .094.159zm4.795 1.518.482.082a.035.035 0 0 1 .024.06l-.506.882a.07.07 0 0 1-.07.03 6.4 6.4 0 0 0-2.113-.024q-.14.051-.23-.1-.23-.409-.47-.812-.002-.01.003-.02a.04.04 0 0 1 .014-.016h.012a7.6 7.6 0 0 1 2.854-.082M5.69 9.597q.283-.75.742-1.43l.37-.488a.08.08 0 0 0 0-.077l-.5-.882a.035.035 0 0 0-.041-.018l-.018.012A8.5 8.5 0 0 0 5.126 8.29q-.342.66-.553 1.323-.009.028.018.03h1.035a.065.065 0 0 0 .06-.047zm12.426-2.454a7.7 7.7 0 0 1 1.318 2.471q.01.028-.024.03h-1.023a.08.08 0 0 1-.07-.047 6.8 6.8 0 0 0-1.13-1.942c0-.018 0-.03.011-.041q.263-.458.53-.912a.02.02 0 0 1 .017.006zM4.573 14.398a7.9 7.9 0 0 0 1.695 2.894h.023v-.012l.53-.906.006-.023-.006-.018a6.7 6.7 0 0 1-1.153-1.97.05.05 0 0 0-.03-.012H4.603l-.012.005a.03.03 0 0 0-.018.042m13.673.158.083-.176a.05.05 0 0 1 .047-.03h1.047l.012.012v.024a7.85 7.85 0 0 1-1.706 2.918l-.011-.007-.007-.01-.518-.895a.05.05 0 0 1 .006-.059 6.5 6.5 0 0 0 1.047-1.777m-7.413 4.125-.53.935a.03.03 0 0 0 .012.035h.012a7.8 7.8 0 0 0 3.377-.006l.003-.011-.003-.012-.53-.935q-.006-.027-.04-.018-1.13.195-2.26 0c-.017 0-.029 0-.04.018z"/>
</svg>
